!!!SOCIAL_FUNCTION:	situi dance song
!!!PDT:	1957
!!!OTL: No_30_Song_Addressed_to_a_New_Chief.krn
!!!LING_GROUP: Keresan
!!!LANG: Tone
!!!REG: Southwest
**kern
*staff1
=1-
*clefF4
*k[b-e-a-d-]
*M3/4
2r
8.E-\L
16E-\Jk
=2!|:
4e-\
4e-\
4e-\
=3
*M5/8
8c\L
8c\
8c\
8A-\
8A-\J
=4
*M2/4
4A-\
8.A-\L
16E-\Jk
=5
4e-\
4e-\
=6
*M3/4
8e-\L
8f\J
8g\L
8e-\J
4e-\
=7
8c\L
8B-\J
8c\L
8B-\J
4B-\
=8
4c\
4A-\
4r
=9
*M5/8
8c\L
8A-\
8E-\J
4E-\
=10
*M2/4
8c\L
8A-\J
8c\L
8B-\J
=11
*M3/4
8c\L
[8A-\J
8A-\L]
8A-\J
4A-\
=12
*M2/4
16c\LK
8.A-\J
12A-\L
12A-\
12E-\J
=13
16c\LK
8.A-\J
16A-\LL
16A-\
16E-\
16A-\JJ
=14
12c\L
12A-\
12A-\J
8.A-\L
16E-\Jk
=15
8.A-\L
16c\Jk
8.A-\L
16A-\Jk
=16
12E-\L
12E-\
12E-\J
8.A-\L
16E-\Jk
=17
*M3/4
8.E-\L
16E-\Jk
8E-\L
16E-\L
16E-\JJ
8E-\
8r
=18
*M2/4
12E-\L
12E-\
12E-\J
8E-\L
16E-\L
16C\JJ
=19:|!
12G\L
12G\
12G\J
4G\
=20
16E-\LL
16C\
16e-\
16e-\JJ
12f\L
12c\
12f\J
=21
8.e-\L
16e-\Jk
4e-\
=22
*M5/8
8c\L
8c\
8A-\J
4A-\
=23
*M3/4
16F\LL
16F\
16f\
16e-\JJ
12f\L
12c\
12f\J
12f\L
12e-\
24e-\Jk
24r
=24
*M2/4
8.c\L
16e-\Jk
8.B-\L
16B-\Jk
=25
*M3/4
12c\L
12A-\
12A-\J
8.E-\L
16E-\Jk
4r
=26
*M2/4
12c\L
12A-\
12A-\J
4A-\
=27
8.A-\L
16E-\Jk
4E-\
=28
16c\LK
8.A-\J
4A-\
=29
16A-\LK
8.E-\J
8.E-\L
16A-\Jk
=30
12c\L
12A-\
12A-\J
8.c\L
16A-\Jk
=31
*M5/8
8.E-\L
16A-\Jk
4r
8c\
=32
*M2/4
8.A-\L
16A-\Jk
12A-\L
12E-\
12E-\J
=33
8.E-\L
16A-\Jk
8.A-\L
16A-\Jk
=34
12A-\L
12E-\
12E-\J
8.E-\L
16A-\Jk
=35
*M3/8
16c\LL
16A-\
16c\
16B-\
16A-\
16E-\JJ
=36
*M2/4
8.A-\L
16A-\Jk
8A-\
8r
=37
8.A-\L
16A-\Jk
4r
=38
12e-\L
12e-\
12c\J
8.e-\L
16g\Jk
=39
4e-\
16e-\LL
16c\
16c\
16B-\JJ
=40
!!pagebreak:default
12c\L
12A-\
12A-\J
8.A-\L
16A-\Jk
=41
*M3/4
12c\L
12B-\
12B-\J
12c\L
12A-\
12A-\J
8.A-\L
16c\Jk
=42
*M2/4
16A-\LK
8.A-\J
12A-\L
12E-\
12E-\J
=43
16c\LK
8.A-\J
12A-\L
12E-\
12E-\J
=44
12c\L
12c\
12B-\J
8A-\L
16A-\L
16A-\JJ
=45
12c\L
12B-\
12c\J
8.A-\L
16c\Jk
=46
*M3/4
8.A-\L
16A-\Jk
4A-\
12A-\L
12E-\
24E-\Jk
24r
=47
*M2/4
12c\L
12B-\
12c\J
8.A-\L
16c\Jk
=48
12c\L
12A-\
12A-\J
8.A-\L
16A-\Jk
=49
*M3/4
8.E-\L
16E-\Jk
8.E-\L
16E-\Jk
8E-\
8r
=50
*M2/4
12c\L
12B-\
12c\J
8.A-\L
16c\Jk
=51
*M5/8
12c\L
12A-\
12A-\J
8A-\
8r
8A-\
=52
*M2/4
8.E-\L
16E-\Jk
8.E-\L
16E-\Jk
=53
8.E-\L
16A-\Jk
8.A-\L
16A-\Jk
=54
8.E-\L
16E-\Jk
8.E-\L
16E-\Jk
=55
*M3/4
8.E-\L
16A-\Jk
8.E-\L
16E-\Jk
8.E-\L
16E-\Jk
=56
4E-\
4r
4r
==
*-
